packages/kaspersky-hexa-ui-icons/src/iconsSVGs/16/Clean.svg

<svg width="16" height="16" viewBox="0 0 16 16" fill="none" xmlns="http://www.w3.org/2000/svg">
<path fill-rule="evenodd" clip-rule="evenodd" d="M7.9937 0.998291C6.89212 0.998291 5.99912 1.8913 5.99912 2.99288V6.60143C4.89329 6.62823 3.9391 7.39456 3.67778 8.47451L2.72057 12.4305C2.40842 13.7205 3.3858 14.9626 4.71307 14.9626H11.1831C12.5104 14.9626 13.4878 13.7205 13.1756 12.4305L12.2184 8.47451C11.9643 7.42437 11.0551 6.67077 9.98829 6.60533V2.99288C9.98829 1.8913 9.09528 0.998291 7.9937 0.998291ZM7.29912 2.99288C7.29912 2.60927 7.6101 2.29829 7.9937 2.29829C8.37731 2.29829 8.68829 2.60927 8.68829 2.99288V6.37663H7.29912V2.99288ZM4.94132 8.78025C5.06619 8.26419 5.52812 7.90071 6.05906 7.90071H9.83714C10.3681 7.90071 10.83 8.2642 10.9549 8.78025L11.1053 9.40192H4.79089L4.94132 8.78025ZM4.47633 10.7019H11.4199L11.9121 12.7362C12.0263 13.2082 11.6687 13.6626 11.1831 13.6626H7.48814V12.8938C7.48814 12.5349 7.19713 12.2438 6.83814 12.2438C6.47916 12.2438 6.18814 12.5349 6.18814 12.8938V13.6626H4.71307C4.22748 13.6626 3.8699 13.2082 3.9841 12.7362L4.47633 10.7019Z" fill="black"/>
</svg>

<svg xmlns="http://www.w3.org/2000/svg" width="16" height="16" fill="none" viewBox="0 0 16 16"><path fill="#000" fill-rule="evenodd" d="M7.9937.9983c-1.1016 0-1.9946.893-1.9946 1.9946v3.6085a2.45 2.45 0 0 0-2.3213 1.8731l-.9572 3.956c-.3122 1.29.6652 2.5321 1.9925 2.5321h6.47c1.3273 0 2.3047-1.2421 1.9925-2.5321l-.9572-3.956a2.45 2.45 0 0 0-2.2301-1.8692V2.993c0-1.1016-.893-1.9946-1.9946-1.9946M7.2991 2.993a.6946.6946 0 1 1 1.3892 0v3.3837H7.299zM4.9413 8.7803a1.15 1.15 0 0 1 1.1178-.8796h3.778a1.15 1.15 0 0 1 1.1178.8796l.1504.6216H4.7909zm-.465 1.9216H11.42l.4922 2.0343c.1142.472-.2434.9264-.729.9264h-3.695v-.7688a.65.65 0 0 0-1.3 0v.7688h-1.475c-.4856 0-.8432-.4544-.729-.9264z"/></svg>
